images/3247317.svg

<?xml version="1.0" encoding="UTF-8"?>
<svg xmlns="http://www.w3.org/2000/svg" xmlns:xlink="http://www.w3.org/1999/xlink" width="300pt" height="300pt" viewBox="0 0 300 300" version="1.1">
<defs>
<g>
<symbol overflow="visible" id="glyph0-0">
<path style="stroke:none;" d="M 0.59375 2.125 L 0.59375 -8.46875 L 6.59375 -8.46875 L 6.59375 2.125 Z M 1.265625 1.453125 L 5.9375 1.453125 L 5.9375 -7.78125 L 1.265625 -7.78125 Z M 1.265625 1.453125 "/>
</symbol>
<symbol overflow="visible" id="glyph0-1">
<path style="stroke:none;" d="M 1.171875 -8.75 L 2.765625 -8.75 L 6.65625 -1.4375 L 6.65625 -8.75 L 7.796875 -8.75 L 7.796875 0 L 6.203125 0 L 2.328125 -7.3125 L 2.328125 0 L 1.171875 0 Z M 1.171875 -8.75 "/>
</symbol>
<symbol overflow="visible" id="glyph0-2">
<path style="stroke:none;" d="M 1.171875 -8.75 L 2.359375 -8.75 L 2.359375 -5.15625 L 6.65625 -5.15625 L 6.65625 -8.75 L 7.84375 -8.75 L 7.84375 0 L 6.65625 0 L 6.65625 -4.171875 L 2.359375 -4.171875 L 2.359375 0 L 1.171875 0 Z M 1.171875 -8.75 "/>
</symbol>
<symbol overflow="visible" id="glyph0-3">
<path style="stroke:none;" d="M 4.734375 -7.953125 C 3.867188 -7.953125 3.179688 -7.628906 2.671875 -6.984375 C 2.171875 -6.347656 1.921875 -5.472656 1.921875 -4.359375 C 1.921875 -3.265625 2.171875 -2.394531 2.671875 -1.75 C 3.179688 -1.113281 3.867188 -0.796875 4.734375 -0.796875 C 5.585938 -0.796875 6.265625 -1.113281 6.765625 -1.75 C 7.273438 -2.394531 7.53125 -3.265625 7.53125 -4.359375 C 7.53125 -5.472656 7.273438 -6.347656 6.765625 -6.984375 C 6.265625 -7.628906 5.585938 -7.953125 4.734375 -7.953125 Z M 4.734375 -8.90625 C 5.953125 -8.90625 6.925781 -8.492188 7.65625 -7.671875 C 8.394531 -6.847656 8.765625 -5.742188 8.765625 -4.359375 C 8.765625 -2.984375 8.394531 -1.882812 7.65625 -1.0625 C 6.925781 -0.238281 5.953125 0.171875 4.734375 0.171875 C 3.503906 0.171875 2.519531 -0.238281 1.78125 -1.0625 C 1.039062 -1.882812 0.671875 -2.984375 0.671875 -4.359375 C 0.671875 -5.742188 1.039062 -6.847656 1.78125 -7.671875 C 2.519531 -8.492188 3.503906 -8.90625 4.734375 -8.90625 Z M 4.734375 -8.90625 "/>
</symbol>
<symbol overflow="visible" id="glyph0-4">
<path style="stroke:none;" d="M 1.171875 -8.75 L 6.203125 -8.75 L 6.203125 -7.75 L 2.359375 -7.75 L 2.359375 -5.171875 L 5.828125 -5.171875 L 5.828125 -4.171875 L 2.359375 -4.171875 L 2.359375 0 L 1.171875 0 Z M 1.171875 -8.75 "/>
</symbol>
</g>
</defs>
<g id="surface43653">
<rect x="0" y="0" width="300" height="300" style="fill:rgb(100%,100%,100%);fill-opacity:1;stroke:none;"/>
<path style=" stroke:none;fill-rule:nonzero;fill:rgb(0%,0%,0%);fill-opacity:1;" d="M 145.402344 103.296875 L 129.542969 128.054688 L 138.976562 131.988281 Z M 145.402344 103.296875 "/>
<path style="fill:none;stroke-width:1.2;stroke-linecap:butt;stroke-linejoin:miter;stroke:rgb(0%,0%,0%);stroke-opacity:1;stroke-miterlimit:10;" d="M 145.402344 103.296875 L 174.117188 99.582031 "/>
<path style="fill:none;stroke-width:1.2;stroke-linecap:butt;stroke-linejoin:miter;stroke:rgb(0%,0%,0%);stroke-opacity:1;stroke-miterlimit:10;" d="M 145.402344 103.296875 L 127.828125 80.285156 "/>
<path style=" stroke:none;fill-rule:nonzero;fill:rgb(0%,0%,0%);fill-opacity:1;" d="M 174.117188 99.582031 L 200.230469 86.070312 L 194.027344 77.949219 Z M 174.117188 99.582031 "/>
<path style="fill:none;stroke-width:1.2;stroke-linecap:butt;stroke-linejoin:miter;stroke:rgb(0%,0%,0%);stroke-opacity:1;stroke-miterlimit:10;" d="M 200.84375 110.726562 L 174.117188 99.582031 "/>
<path style="fill:none;stroke-width:1.2;stroke-linecap:butt;stroke-linejoin:miter;stroke:rgb(0%,0%,0%);stroke-opacity:1;stroke-miterlimit:10;" d="M 197.128906 82.011719 L 200.84375 110.726562 "/>
<path style=" stroke:none;fill-rule:nonzero;fill:rgb(0%,0%,0%);fill-opacity:1;" d="M 200.84375 110.726562 L 229.53125 117.160156 L 230 106.953125 Z M 200.84375 110.726562 "/>
<path style="fill:none;stroke-width:1.2;stroke-linecap:butt;stroke-linejoin:miter;stroke:rgb(0%,0%,0%);stroke-opacity:1;stroke-miterlimit:10;" d="M 200.84375 110.726562 L 194.511719 138.980469 "/>
<path style=" stroke:none;fill-rule:nonzero;fill:rgb(0%,0%,0%);fill-opacity:1;" d="M 194.511719 138.980469 L 212.351562 162.351562 L 219.273438 154.832031 Z M 194.511719 138.980469 "/>
<path style="fill:none;stroke-width:1.2;stroke-linecap:butt;stroke-linejoin:miter;stroke:rgb(0%,0%,0%);stroke-opacity:1;stroke-miterlimit:10;" d="M 194.511719 138.980469 L 180.691406 143.300781 "/>
<path style="fill:none;stroke-width:1.2;stroke-linecap:butt;stroke-linejoin:miter;stroke:rgb(0%,0%,100%);stroke-opacity:1;stroke-miterlimit:10;" d="M 180.691406 143.300781 L 166.875 147.621094 "/>
<path style="fill:none;stroke-width:1.2;stroke-linecap:butt;stroke-linejoin:miter;stroke:rgb(0%,0%,0%);stroke-opacity:1;stroke-miterlimit:10;" d="M 215.8125 158.589844 L 209.480469 186.84375 "/>
<path style="fill:none;stroke-width:1.2;stroke-linecap:butt;stroke-linejoin:miter;stroke:rgb(0%,0%,0%);stroke-opacity:1;stroke-miterlimit:10;" d="M 221.828125 162.90625 L 216.761719 185.507812 "/>
<path style="fill:none;stroke-width:1.2;stroke-linecap:butt;stroke-linejoin:miter;stroke:rgb(0%,0%,0%);stroke-opacity:1;stroke-miterlimit:10;" d="M 243.449219 149.949219 L 215.8125 158.589844 "/>
<path style="fill:none;stroke-width:1.2;stroke-linecap:butt;stroke-linejoin:miter;stroke:rgb(0%,0%,0%);stroke-opacity:1;stroke-miterlimit:10;" d="M 209.480469 186.84375 L 230.78125 206.457031 "/>
<path style="fill:none;stroke-width:1.2;stroke-linecap:butt;stroke-linejoin:miter;stroke:rgb(0%,0%,0%);stroke-opacity:1;stroke-miterlimit:10;" d="M 230.78125 206.457031 L 258.417969 197.8125 "/>
<path style="fill:none;stroke-width:1.2;stroke-linecap:butt;stroke-linejoin:miter;stroke:rgb(0%,0%,0%);stroke-opacity:1;stroke-miterlimit:10;" d="M 231.511719 199.089844 L 253.621094 192.175781 "/>
<path style="fill:none;stroke-width:1.2;stroke-linecap:butt;stroke-linejoin:miter;stroke:rgb(0%,0%,0%);stroke-opacity:1;stroke-miterlimit:10;" d="M 258.417969 197.8125 L 264.75 169.558594 "/>
<path style="fill:none;stroke-width:1.2;stroke-linecap:butt;stroke-linejoin:miter;stroke:rgb(0%,0%,0%);stroke-opacity:1;stroke-miterlimit:10;" d="M 264.75 169.558594 L 243.449219 149.949219 "/>
<path style="fill:none;stroke-width:1.2;stroke-linecap:butt;stroke-linejoin:miter;stroke:rgb(0%,0%,0%);stroke-opacity:1;stroke-miterlimit:10;" d="M 258.003906 172.609375 L 240.964844 156.921875 "/>
<path style="fill:none;stroke-width:1.2;stroke-linecap:butt;stroke-linejoin:miter;stroke:rgb(0%,0%,100%);stroke-opacity:1;stroke-miterlimit:10;" d="M 166.875 147.621094 L 163.710938 161.75 "/>
<path style="fill:none;stroke-width:1.2;stroke-linecap:butt;stroke-linejoin:miter;stroke:rgb(0%,0%,0%);stroke-opacity:1;stroke-miterlimit:10;" d="M 163.710938 161.75 L 160.542969 175.875 "/>
<path style=" stroke:none;fill-rule:nonzero;fill:rgb(100%,100%,100%);fill-opacity:1;" d="M 157.875 140.621094 L 175.875 140.621094 L 175.875 154.621094 L 157.875 154.621094 Z M 157.875 140.621094 "/>
<g style="fill:rgb(0%,0%,100%);fill-opacity:1;">
  <use xlink:href="#glyph0-1" x="157.875" y="151.759766"/>
  <use xlink:href="#glyph0-2" x="166.851562" y="151.759766"/>
</g>
<path style="fill:none;stroke-width:1.2;stroke-linecap:butt;stroke-linejoin:miter;stroke:rgb(0%,0%,0%);stroke-opacity:1;stroke-miterlimit:10;" d="M 158.234375 178.382812 L 168.886719 188.1875 "/>
<path style="fill:none;stroke-width:1.2;stroke-linecap:butt;stroke-linejoin:miter;stroke:rgb(100%,0%,0%);stroke-opacity:1;stroke-miterlimit:10;" d="M 168.886719 188.1875 L 179.539062 197.992188 "/>
<path style="fill:none;stroke-width:1.2;stroke-linecap:butt;stroke-linejoin:miter;stroke:rgb(0%,0%,0%);stroke-opacity:1;stroke-miterlimit:10;" d="M 162.851562 173.371094 L 173.5 183.175781 "/>
<path style="fill:none;stroke-width:1.2;stroke-linecap:butt;stroke-linejoin:miter;stroke:rgb(100%,0%,0%);stroke-opacity:1;stroke-miterlimit:10;" d="M 173.5 183.175781 L 184.152344 192.980469 "/>
<path style="fill:none;stroke-width:1.2;stroke-linecap:butt;stroke-linejoin:miter;stroke:rgb(0%,0%,0%);stroke-opacity:1;stroke-miterlimit:10;" d="M 160.542969 175.875 L 146.726562 180.199219 "/>
<path style="fill:none;stroke-width:1.2;stroke-linecap:butt;stroke-linejoin:miter;stroke:rgb(100%,0%,0%);stroke-opacity:1;stroke-miterlimit:10;" d="M 146.726562 180.199219 L 132.910156 184.519531 "/>
<path style=" stroke:none;fill-rule:nonzero;fill:rgb(100%,100%,100%);fill-opacity:1;" d="M 176.84375 188.488281 L 186.84375 188.488281 L 186.84375 202.488281 L 176.84375 202.488281 Z M 176.84375 188.488281 "/>
<g style="fill:rgb(100%,0%,0%);fill-opacity:1;">
  <use xlink:href="#glyph0-3" x="176.84375" y="199.626953"/>
</g>
<path style="fill:none;stroke-width:1.2;stroke-linecap:butt;stroke-linejoin:miter;stroke:rgb(100%,0%,0%);stroke-opacity:1;stroke-miterlimit:10;" d="M 132.910156 184.519531 L 129.742188 198.648438 "/>
<path style="fill:none;stroke-width:1.2;stroke-linecap:butt;stroke-linejoin:miter;stroke:rgb(0%,0%,0%);stroke-opacity:1;stroke-miterlimit:10;" d="M 129.742188 198.648438 L 126.574219 212.773438 "/>
<path style=" stroke:none;fill-rule:nonzero;fill:rgb(100%,100%,100%);fill-opacity:1;" d="M 127.910156 177.519531 L 137.910156 177.519531 L 137.910156 191.519531 L 127.910156 191.519531 Z M 127.910156 177.519531 "/>
<g style="fill:rgb(100%,0%,0%);fill-opacity:1;">
  <use xlink:href="#glyph0-3" x="127.910156" y="188.658203"/>
</g>
<path style="fill:none;stroke-width:1.2;stroke-linecap:butt;stroke-linejoin:miter;stroke:rgb(0%,0%,0%);stroke-opacity:1;stroke-miterlimit:10;" d="M 126.574219 212.773438 L 98.941406 221.417969 "/>
<path style="fill:none;stroke-width:1.2;stroke-linecap:butt;stroke-linejoin:miter;stroke:rgb(0%,0%,0%);stroke-opacity:1;stroke-miterlimit:10;" d="M 98.941406 221.417969 L 92.609375 249.671875 "/>
<path style="fill:none;stroke-width:1.2;stroke-linecap:butt;stroke-linejoin:miter;stroke:rgb(0%,0%,0%);stroke-opacity:1;stroke-miterlimit:10;" d="M 91.660156 222.753906 L 86.59375 245.355469 "/>
<path style="fill:none;stroke-width:1.2;stroke-linecap:butt;stroke-linejoin:miter;stroke:rgb(0%,0%,0%);stroke-opacity:1;stroke-miterlimit:10;" d="M 77.640625 201.804688 L 98.941406 221.417969 "/>
<path style="fill:none;stroke-width:1.2;stroke-linecap:butt;stroke-linejoin:miter;stroke:rgb(0%,0%,0%);stroke-opacity:1;stroke-miterlimit:10;" d="M 92.609375 249.671875 L 64.972656 258.3125 "/>
<path style="fill:none;stroke-width:1.2;stroke-linecap:butt;stroke-linejoin:miter;stroke:rgb(0%,0%,0%);stroke-opacity:1;stroke-miterlimit:10;" d="M 64.972656 258.3125 L 43.671875 238.703125 "/>
<path style="fill:none;stroke-width:1.2;stroke-linecap:butt;stroke-linejoin:miter;stroke:rgb(0%,0%,0%);stroke-opacity:1;stroke-miterlimit:10;" d="M 67.457031 251.339844 L 50.417969 235.652344 "/>
<path style="fill:none;stroke-width:1.2;stroke-linecap:butt;stroke-linejoin:miter;stroke:rgb(0%,0%,0%);stroke-opacity:1;stroke-miterlimit:10;" d="M 43.671875 238.703125 L 50.003906 210.449219 "/>
<path style="fill:none;stroke-width:1.2;stroke-linecap:butt;stroke-linejoin:miter;stroke:rgb(0%,0%,0%);stroke-opacity:1;stroke-miterlimit:10;" d="M 50.003906 210.449219 L 77.640625 201.804688 "/>
<path style="fill:none;stroke-width:1.2;stroke-linecap:butt;stroke-linejoin:miter;stroke:rgb(0%,0%,0%);stroke-opacity:1;stroke-miterlimit:10;" d="M 54.800781 216.085938 L 76.910156 209.171875 "/>
<path style="fill:none;stroke-width:1.2;stroke-linecap:butt;stroke-linejoin:miter;stroke:rgb(0%,0%,0%);stroke-opacity:1;stroke-miterlimit:10;" d="M 130.972656 81.59375 L 136.542969 68.234375 "/>
<path style="fill:none;stroke-width:1.2;stroke-linecap:butt;stroke-linejoin:miter;stroke:rgb(100%,0%,0%);stroke-opacity:1;stroke-miterlimit:10;" d="M 136.542969 68.234375 L 142.113281 54.871094 "/>
<path style="fill:none;stroke-width:1.2;stroke-linecap:butt;stroke-linejoin:miter;stroke:rgb(0%,0%,0%);stroke-opacity:1;stroke-miterlimit:10;" d="M 124.683594 78.972656 L 130.253906 65.609375 "/>
<path style="fill:none;stroke-width:1.2;stroke-linecap:butt;stroke-linejoin:miter;stroke:rgb(100%,0%,0%);stroke-opacity:1;stroke-miterlimit:10;" d="M 130.253906 65.609375 L 135.828125 52.25 "/>
<path style="fill:none;stroke-width:1.2;stroke-linecap:butt;stroke-linejoin:miter;stroke:rgb(0%,0%,0%);stroke-opacity:1;stroke-miterlimit:10;" d="M 127.828125 80.285156 L 113.46875 82.140625 "/>
<path style="fill:none;stroke-width:1.2;stroke-linecap:butt;stroke-linejoin:miter;stroke:rgb(0%,0%,100%);stroke-opacity:1;stroke-miterlimit:10;" d="M 113.46875 82.140625 L 99.113281 83.996094 "/>
<path style=" stroke:none;fill-rule:nonzero;fill:rgb(100%,100%,100%);fill-opacity:1;" d="M 133.972656 46.558594 L 143.972656 46.558594 L 143.972656 60.558594 L 133.972656 60.558594 Z M 133.972656 46.558594 "/>
<g style="fill:rgb(100%,0%,0%);fill-opacity:1;">
  <use xlink:href="#glyph0-3" x="133.972656" y="57.697266"/>
</g>
<path style="fill:none;stroke-width:1.2;stroke-linecap:butt;stroke-linejoin:miter;stroke:rgb(0%,0%,100%);stroke-opacity:1;stroke-miterlimit:10;" d="M 99.113281 83.996094 L 90.324219 72.492188 "/>
<path style="fill:none;stroke-width:1.2;stroke-linecap:butt;stroke-linejoin:miter;stroke:rgb(0%,0%,0%);stroke-opacity:1;stroke-miterlimit:10;" d="M 90.324219 72.492188 L 81.539062 60.984375 "/>
<path style=" stroke:none;fill-rule:nonzero;fill:rgb(100%,100%,100%);fill-opacity:1;" d="M 90.113281 76.996094 L 108.113281 76.996094 L 108.113281 90.996094 L 90.113281 90.996094 Z M 90.113281 76.996094 "/>
<g style="fill:rgb(0%,0%,100%);fill-opacity:1;">
  <use xlink:href="#glyph0-1" x="90.113281" y="88.134766"/>
  <use xlink:href="#glyph0-2" x="99.089844" y="88.134766"/>
</g>
<path style="fill:none;stroke-width:1.2;stroke-linecap:butt;stroke-linejoin:miter;stroke:rgb(0%,0%,0%);stroke-opacity:1;stroke-miterlimit:10;" d="M 81.539062 60.984375 L 52.824219 64.699219 "/>
<path style="fill:none;stroke-width:1.2;stroke-linecap:butt;stroke-linejoin:miter;stroke:rgb(0%,0%,0%);stroke-opacity:1;stroke-miterlimit:10;" d="M 52.824219 64.699219 L 44.035156 53.191406 "/>
<path style="fill:none;stroke-width:1.2;stroke-linecap:butt;stroke-linejoin:miter;stroke:rgb(20%,80%,80%);stroke-opacity:1;stroke-miterlimit:10;" d="M 44.035156 53.191406 L 35.25 41.6875 "/>
<path style=" stroke:none;fill-rule:nonzero;fill:rgb(100%,100%,100%);fill-opacity:1;" d="M 28.25 34.6875 L 35.25 34.6875 L 35.25 48.6875 L 28.25 48.6875 Z M 28.25 34.6875 "/>
<g style="fill:rgb(20%,80%,80%);fill-opacity:1;">
  <use xlink:href="#glyph0-4" x="28.25" y="45.826172"/>
</g>
</g>
</svg>

<svg xmlns="http://www.w3.org/2000/svg" xmlns:xlink="http://www.w3.org/1999/xlink" width="300pt" height="300pt" viewBox="0 0 300 300"><defs><symbol overflow="visible"><path d="M.594 2.125V-8.47h6V2.126zm.672-.672h4.671V-7.78h-4.67zm0 0"/></symbol><symbol overflow="visible" id="a"><path d="M1.172-8.75h1.594l3.89 7.313V-8.75h1.14V0H6.204L2.328-7.313V0H1.172zm0 0"/></symbol><symbol overflow="visible" id="b"><path d="M1.172-8.75H2.36v3.594h4.296V-8.75h1.188V0H6.656v-4.172H2.36V0H1.17zm0 0"/></symbol><symbol overflow="visible" id="c"><path d="M4.734-7.953c-.867 0-1.554.324-2.062.97-.5.635-.75 1.51-.75 2.624 0 1.094.25 1.965.75 2.61.508.637 1.195.953 2.062.953.852 0 1.532-.316 2.032-.953.507-.645.765-1.516.765-2.61 0-1.113-.257-1.988-.764-2.624-.5-.645-1.18-.97-2.032-.97zm0-.953c1.22 0 2.192.414 2.922 1.234.74.824 1.11 1.93 1.11 3.313 0 1.376-.37 2.477-1.11 3.298C6.926-.24 5.953.17 4.734.17c-1.23 0-2.214-.41-2.953-1.234C1.04-1.882.673-2.984.673-4.36c0-1.382.367-2.488 1.11-3.312.738-.82 1.722-1.234 2.952-1.234zm0 0"/></symbol><symbol overflow="visible" id="d"><path d="M1.172-8.75h5.03v1H2.36v2.578h3.468v1h-3.47V0H1.173zm0 0"/></symbol></defs><g><path fill="#fff" d="M0 0h300v300H0z"/><path d="M145.402 103.297l-15.86 24.758 9.435 3.933zm0 0"/><path d="M145.402 103.297l28.715-3.715M145.402 103.297l-17.574-23.012" stroke-width="1.2" stroke="#000" stroke-miterlimit="10" fill="none"/><path d="M174.117 99.582L200.23 86.07l-6.203-8.12zm0 0"/><path d="M200.844 110.727l-26.727-11.145M197.13 82.012l3.714 28.715" stroke-width="1.2" stroke="#000" stroke-miterlimit="10" fill="none"/><path d="M200.844 110.727l28.687 6.433.47-10.207zm0 0"/><path d="M200.844 110.727l-6.332 28.253" stroke-width="1.2" stroke="#000" stroke-miterlimit="10" fill="none"/><path d="M194.512 138.98l17.84 23.372 6.92-7.52zm0 0"/><path d="M194.512 138.98l-13.82 4.32" stroke-width="1.2" stroke="#000" stroke-miterlimit="10" fill="none"/><path d="M180.69 143.3l-13.815 4.32" stroke-width="1.2" stroke="#00f" stroke-miterlimit="10" fill="none"/><path d="M215.813 158.59l-6.333 28.254M221.828 162.906l-5.066 22.602M243.45 149.95l-27.637 8.64M209.48 186.844l21.3 19.613M230.78 206.457l27.638-8.644M231.512 199.09l22.11-6.914M258.418 197.813l6.332-28.254M264.75 169.56l-21.3-19.61M258.004 172.61l-17.04-15.688" stroke-width="1.2" stroke="#000" stroke-miterlimit="10" fill="none"/><path d="M166.875 147.62l-3.164 14.13" stroke-width="1.2" stroke="#00f" stroke-miterlimit="10" fill="none"/><path d="M163.71 161.75l-3.167 14.125" stroke-width="1.2" stroke="#000" stroke-miterlimit="10" fill="none"/><path d="M157.875 140.62h18v14h-18zm0 0" fill="#fff"/><g fill="#00f"><use xlink:href="#a" x="157.875" y="151.76"/><use xlink:href="#b" x="166.852" y="151.76"/></g><path d="M158.234 178.383l10.653 9.804" stroke-width="1.2" stroke="#000" stroke-miterlimit="10" fill="none"/><path d="M168.887 188.188l10.652 9.804" stroke-width="1.2" stroke="#f00" stroke-miterlimit="10" fill="none"/><path d="M162.852 173.37l10.648 9.806" stroke-width="1.2" stroke="#000" stroke-miterlimit="10" fill="none"/><path d="M173.5 183.176l10.652 9.804" stroke-width="1.2" stroke="#f00" stroke-miterlimit="10" fill="none"/><path d="M160.543 175.875l-13.816 4.324" stroke-width="1.2" stroke="#000" stroke-miterlimit="10" fill="none"/><path d="M146.727 180.2l-13.817 4.32" stroke-width="1.2" stroke="#f00" stroke-miterlimit="10" fill="none"/><path d="M176.844 188.488h10v14h-10zm0 0" fill="#fff"/><use xlink:href="#c" x="176.844" y="199.627" fill="#f00"/><path d="M132.91 184.52l-3.168 14.128" stroke-width="1.2" stroke="#f00" stroke-miterlimit="10" fill="none"/><path d="M129.742 198.648l-3.168 14.125" stroke-width="1.2" stroke="#000" stroke-miterlimit="10" fill="none"/><path d="M127.91 177.52h10v14h-10zm0 0" fill="#fff"/><use xlink:href="#c" x="127.91" y="188.658" fill="#f00"/><path d="M126.574 212.773l-27.633 8.645M98.94 221.418l-6.33 28.254M91.66 222.754l-5.066 22.6M77.64 201.805l21.3 19.613M92.61 249.672l-27.637 8.64M64.973 258.313l-21.3-19.61M67.457 251.34l-17.04-15.688M43.672 238.703l6.332-28.254M50.004 210.45l27.637-8.645M54.8 216.086l22.11-6.914M130.973 81.594l5.57-13.36" stroke-width="1.2" stroke="#000" stroke-miterlimit="10" fill="none"/><path d="M136.543 68.234l5.57-13.363" stroke-width="1.2" stroke="#f00" stroke-miterlimit="10" fill="none"/><path d="M124.684 78.973l5.57-13.364" stroke-width="1.2" stroke="#000" stroke-miterlimit="10" fill="none"/><path d="M130.254 65.61l5.574-13.36" stroke-width="1.2" stroke="#f00" stroke-miterlimit="10" fill="none"/><path d="M127.828 80.285l-14.36 1.856" stroke-width="1.2" stroke="#000" stroke-miterlimit="10" fill="none"/><path d="M113.47 82.14l-14.357 1.856" stroke-width="1.2" stroke="#00f" stroke-miterlimit="10" fill="none"/><path d="M133.973 46.56h10v14h-10zm0 0" fill="#fff"/><use xlink:href="#c" x="133.973" y="57.697" fill="#f00"/><path d="M99.113 83.996l-8.79-11.504" stroke-width="1.2" stroke="#00f" stroke-miterlimit="10" fill="none"/><path d="M90.324 72.492L81.54 60.984" stroke-width="1.2" stroke="#000" stroke-miterlimit="10" fill="none"/><path d="M90.113 76.996h18v14h-18zm0 0" fill="#fff"/><g fill="#00f"><use xlink:href="#a" x="90.113" y="88.135"/><use xlink:href="#b" x="99.09" y="88.135"/></g><path d="M81.54 60.984L52.823 64.7M52.824 64.7l-8.79-11.51" stroke-width="1.2" stroke="#000" stroke-miterlimit="10" fill="none"/><path d="M44.035 53.19L35.25 41.69" stroke-width="1.2" stroke="#3cc" stroke-miterlimit="10" fill="none"/><path d="M28.25 34.688h7v14h-7zm0 0" fill="#fff"/><use xlink:href="#d" x="28.25" y="45.826" fill="#3cc"/></g></svg>
